!!!OTL@@DE: Bedenklichkeiten
!!!ONB: Spanischer Tanz: La Madrilena
!!!OMD: Munter
!!!LYR: M&uuml;hler
!!!LDT: 1842
!!!OCL: Erk, Ludwig
!!!GCO: Deutscher Liederschatz, Band 1
**kern	**kern	**kern
*staff3	*staff2	*staff1
*Ipiano	*Ipiano	*Ivox
=1-	=1-	=1-
*clefF4	*clefG2	*clefG2
*k[b-e-]	*k[b-e-]	*k[b-e-]
*B-:	*B-:	*B-:
*M3/8	*M3/8	*M3/8
*MM84	*MM84	*MM84
*^	*	*
8r	4BB-\	8r	8b-\
.	.	.	(ccq/
8F/ 8B-/	.	8d/	16.b-/LL)
.	.	.	32a/JJk
8F/ 8B-/	8r	8d/	16.b-\LL
.	.	.	32cc\JJk
=2	=2	=2	=2
8r	4BB-\	8r	8dd\
8F/ 8B-/	.	8d/	8b-\
8F/ 8B-/	8r	8d/	8f/
=3	=3	=3	=3
8r	4BB-\	8r	8f/
8F/ 8B-/	.	8d/	8.g/
8F/ 8B-/	8r	8d/	.
.	.	.	16d/
=4	=4	=4	=4
8r	4C\	8r	(4f/
8F/ 8A/	.	8e-/	.
8F/ 8A/	8r	8e-/	8e-/)
=5	=5	=5	=5
8r	4FF\	8r	8cc\
.	.	.	(ddq/
8F/ 8A/	.	8e-/	16.cc\LL)
.	.	.	32bn\JJk
8F/ 8A/	8r	8e-/	16.cc\LL
.	.	.	32dd\JJk
=6	=6	=6	=6
8r	4FF\	8r	8ee-\
8F/ 8A/	.	8e-/	8cc\
8F/ 8A/	8r	8e-/	8a/
=7	=7	=7	=7
8r	4FF\	8r	8f/
8F/ 8A/	.	8e-/	8g/
8F/ 8A/	8r	8e-/	8c/
=8	=8	=8	=8
8r	4BB-\	8r	(4e-/
8F/ 8B-/	.	8e-/	.
8F/ 8B-/	8r	8d/	8d/)
*v	*v	*	*
=9	=9	=9
8BB-\L	8b-\	8b-\
.	(ccq/	(ccq/
8F\ 8B-\ 8d\	(16.b-\LL)	16.b-/LL)
.	32a\k	32a/JJk
8F\ 8B-\ 8d\J	16.b-\	16.b-\LL
.	32cc\JJk)	32cc\JJk
=10	=10	=10
8BB-\L	8dd/L	8dd\
8F\ 8B-\ 8d\	8b-/	8b-\
8F\ 8B-\ 8d\J	8f/J	8f/
=11	=11	=11
*^	*	*
8r	4.GG\	8f/L	8f/
8G/L	.	8Bn/ 8g/	8.g/
8G/J	.	8B/ 8d/J	.
.	.	.	16d/
=12	=12	=12	=12
*	*	*^	*
8r	4.C\	(4f/	8r	(4f/
8G/L	.	.	8c\L	.
8G/J	.	8e-/)	8c\J	8e-/)
*v	*v	*	*	*
*	*v	*v	*
=13	=13	=13
8FF/	8cc\	8cc\
.	(ddq/	(ddq/
8F\ 8A\ 8e-\L	(16.cc\LL)	16.cc\LL)
.	32bn\k	32bn\JJk
8F\ 8A\ 8e-\J	16.cc\	16.cc\LL
.	32dd\JJk)	32dd\JJk
=14	=14	=14
8FF\L	8ee-\L	8ee-\
8F\ 8A\ 8e-\	8cc\	8cc\
8F\ 8A\ 8e-\J	8a\J	8a/
=15	=15	=15
8FF\L	8f/L	8f/
8F\ 8B-\	8en/ 8g/	8g/
8F\ 8c\J	8e-/ 8f/ 8a/J	8a/
=16	=16	=16
8B-\L	4d/ 4f/ 4b-/	4b-\
8BB-\J	.	.
8r	8r	8r
==	==	==
*-	*-	*-
!!!ENC: Craig Stuart Sapp
!!!END: 2004/06/28/
!!!EFL: 182/651
